packages/ffe-icons/icons/open/300/md/azm.svg

<svg xmlns="http://www.w3.org/2000/svg" height="24" viewBox="0 -960 960 960" width="24"><path d="M481.445-149.524q-17.059 17.059-39.251 7.653-22.193-9.406-22.193-33.593v-232.229q0-5.385-3.461-8.847-3.462-3.461-8.847-3.461H175.464q-24.187 0-33.593-22.193-9.406-22.192 7.653-39.251L426.97-758.891q9.877-9.877 23.137-15.492 13.261-5.616 27.893-5.616h229.691q29.827 0 51.067 21.241 21.241 21.24 21.241 51.067V-478q0 14.632-5.616 27.893-5.615 13.26-15.492 23.137L481.445-149.524Zm148.554-432.782v199.307L720-473v-234.691q0-5.385-3.462-8.847-3.462-3.462-8.847-3.462H473l-90.001 90.001h199.307q20.27 0 33.982 13.711 13.711 13.712 13.711 33.982ZM480-432.307V-233l90.001-90.001v-234.691q0-5.385-3.462-8.847-3.462-3.462-8.847-3.462H323.001L233-480h199.307q20.27 0 33.981 13.712Q480-452.577 480-432.307Z"/></svg>

<svg xmlns="http://www.w3.org/2000/svg" height="24" viewBox="0 -960 960 960" width="24"><path d="M481.45-149.52q-17.06 17.06-39.26 7.65Q420-151.28 420-175.46v-232.23q0-5.39-3.46-8.85t-8.85-3.46H175.46q-24.18 0-33.59-22.19-9.41-22.2 7.65-39.26l277.45-277.44q9.88-9.88 23.14-15.49Q463.37-780 478-780h229.69q29.83 0 51.07 21.24Q780-737.52 780-707.69V-478q0 14.63-5.62 27.89-5.61 13.26-15.49 23.14L481.45-149.52ZM630-582.31V-383l90-90v-234.69q0-5.39-3.46-8.85t-8.85-3.46H473l-90 90h199.31q20.27 0 33.98 13.71Q630-602.58 630-582.31Zm-150 150V-233l90-90v-234.69q0-5.39-3.46-8.85t-8.85-3.46H323l-90 90h199.31q20.27 0 33.98 13.71Q480-452.58 480-432.31Z"/></svg>
